; generated by PrusaSlicer 2.5.2+win64 on 2023-05-29 at 12:32:24 UTC


;
;
; 

; external perimeters extrusion width = 0.60mm
; perimeters extrusion width = 0.50mm
; infill extrusion width = 0.50mm
; solid infill extrusion width = 0.50mm
; top infill extrusion width = 0.45mm
; first layer extrusion width = 0.42mm

M73 P0 R142
M73 Q0 S145
M201 X1000 Y1000 Z200 E5000 ; sets maximum accelerations, mm/sec^2
M203 X200 Y200 Z12 E120 ; sets maximum feedrates, mm / sec
M204 P1250 R1250 T1250 ; sets acceleration (P, T) and retract acceleration (R), mm/sec^2
M205 X8.00 Y8.00 Z0.40 E4.50 ; sets the jerk limits, mm/sec
M205 S0 T0 ; sets the minimum extruding and travel feed rate, mm/sec
M107
;TYPE:Custom
M862.3 P "MK3S" ; printer model check
M862.1 P0.4 ; nozzle diameter check
M115 U3.12.2 ; tell printer latest fw version
G90 ; use absolute coordinates
M83 ; extruder relative mode
M104 S215 ; set extruder temp
M140 S60 ; set bed temp
M190 S60 ; wait for bed temp
M109 S215 ; wait for extruder temp
G28 W ; home all without mesh bed level
G80 ; mesh bed leveling

G1 Z0.2 F720
G1 Y-3 F1000 ; go outside print area
G92 E0
G1 X60 E9 F1000 ; intro line
G1 X100 E12.5 F1000 ; intro line

G92 E0
M221 S95

; Don't change E values below. Excessive value can damage the printer.

M907 E538 ; set extruder motor current
G21 ; set units to millimeters
G90 ; use absolute coordinates
M83 ; use relative distances for extrusion
M900 K0.05 ; Filament gcode LA 1.5
M900 K30 ; Filament gcode LA 1.0
M107
;LAYER_CHANGE
;Z:0.2
;HEIGHT:0.2
;BEFORE_LAYER_CHANGE
G92 E0.0
;0.2


G1 E-.8 F2100
G1 Z.4 F720
;AFTER_LAYER_CHANGE
;0.2
G1 X53.015 Y53.693 F10800
G1 Z.2 F720
G1 E.8 F2100
M204 S800
;TYPE:Skirt/Brim
;WIDTH:0.42
G1 F1200
G1 X54.06 Y52.817 E.04278
G1 X55 Y52.623 E.03008
G1 X195 Y52.623 E4.3896
G1 X196.307 Y53.015 E.04278
G1 X197.183 Y54.06 E.04278
G1 X197.377 Y55 E.03008
G1 X197.377 Y155 E3.13543
G1 X196.985 Y156.307 E.04278
G1 X195.94 Y157.183 E.04278
G1 X195 Y157.377 E.03008
G1 X55 Y157.377 E4.3896
G1 X53.693 Y156.985 E.04278
G1 X52.817 Y155.94 E.04278
G1 X52.623 Y155 E.03008
G1 X52.623 Y55 E3.13543
G1 X52.997 Y53.75 E.0409
M204 S1000
; printing object BalanceBug v1.2.stl id:0 copy 0
;WIPE_START
M73 P0 R141
G1 F8640
G1 X54.06 Y52.817 E-.32671
G1 X55 Y52.623 E-.22155
G1 X55.917 Y52.623 E-.21174
;WIPE_END
G1 E-.04 F2100
G1 Z.6 F720
G1 X194.213 Y154.213 F10800
G1 Z.2 F720
G1 E.8 F2100
M204 S800
;TYPE:Perimeter
;WIDTH:0.419999
G1 F1200
G1 X55.787 Y154.213 E4.34024
G1 X55.787 Y55.787 E3.08607
G1 X194.213 Y55.787 E4.34024
G1 X194.213 Y154.153 E3.08419
M204 S1000
M73 Q0 S144
G1 X194.59 Y154.59 F10800
M204 S800
;TYPE:External perimeter
G1 F1200
G1 X55.41 Y154.59 E4.36388
G1 X55.41 Y55.41 E3.10971
G1 X194.59 Y55.41 E4.36388
G1 X194.59 Y154.53 E3.10783
M204 S1000
G1 X194.198 Y154.508 F10800
;WIPE_START
G1 F8640
G1 X191.299 Y154.531 E-.76
;WIPE_END
G1 E-.04 F2100
G1 Z.6 F720
G1 X192.406 Y83.615 F10800
G1 Z.2 F720
G1 E.8 F2100
M204 S800
;TYPE:Perimeter
G1 F1200
G1 X192.67 Y84.208 E.02034
G1 X192.784 Y84.926 E.0228
G1 X192.789 Y85 E.00232
G1 X192.708 Y85.649 E.02051
G1 X192.448 Y86.328 E.0228
G1 X192.021 Y86.916 E.0228
G1 X191.456 Y87.374 E.0228
G1 X190.792 Y87.67 E.0228
G1 X190.074 Y87.784 E.0228
G1 X189.351 Y87.708 E.0228
G1 X188.672 Y87.448 E.0228
G1 X188.084 Y87.021 E.0228
G1 X187.626 Y86.456 E.0228
G1 X187.4 Y85.961 E.01705
G1 X187.292 Y85.649 E.01036
G1 X187.216 Y85.074 E.0182
G1 X187.292 Y84.351 E.0228
G1 X187.552 Y83.672 E.0228
G1 X187.979 Y83.084 E.0228
G1 X188.544 Y82.626 E.0228
G1 X189.208 Y82.33 E.0228
G1 X189.89 Y82.221 E.02164
G1 X190.64 Y82.29 E.02364
G1 X191.328 Y82.552 E.02307
G1 X191.916 Y82.979 E.0228
G1 X192.382 Y83.561 E.02335
M204 S1000
G1 X192.062 Y83.757 F10800
M204 S800
;TYPE:External perimeter
G1 F1200
G1 X192.322 Y84.352 E.02035
G1 X192.412 Y85 E.0205
G1 X192.335 Y85.6 E.01897
G1 X192.1 Y86.184 E.01973
G1 X191.722 Y86.687 E.01973
G1 X191.226 Y87.075 E.01973
G1 X190.648 Y87.322 E.01973
G1 X190.025 Y87.41 E.01973
G1 X189.4 Y87.335 E.01973
G1 X188.816 Y87.1 E.01973
G1 X188.313 Y86.722 E.01973
G1 X187.925 Y86.226 E.01973
G1 X187.678 Y85.648 E.01973
G1 X187.59 Y85.025 E.01973
G1 X187.665 Y84.4 E.01973
G1 X187.9 Y83.816 E.01973
G1 X188.278 Y83.313 E.01973
G1 X188.774 Y82.925 E.01973
G1 X189.352 Y82.678 E.01973
G1 X189.939 Y82.595 E.01857
G1 X190.597 Y82.665 E.02076
G1 X191.184 Y82.9 E.01982
G1 X191.687 Y83.278 E.01973
G1 X192.025 Y83.71 E.01721
M204 S1000
G1 X192.462 Y83.751 F10800
;WIPE_START
G1 F8640
G1 X192.322 Y84.352 E-.16331
G1 X192.412 Y85 E-.15097
G1 X192.335 Y85.6 E-.1397
G1 X192.1 Y86.184 E-.14529
G1 X191.722 Y86.687 E-.1453
G1 X191.669 Y86.728 E-.01543
;WIPE_END
G1 E-.04 F2100
G1 Z.6 F720
G1 X192.53 Y96.285 F10800
G1 Z.2 F720
G1 E.8 F2100
M204 S800
;TYPE:Perimeter
G1 F1200
G1 X192.637 Y97 E.02266
G1 X192.556 Y97.649 E.02051
G1 X192.296 Y98.328 E.0228
G1 X191.869 Y98.916 E.0228
G1 X191.304 Y99.374 E.0228
G1 X190.64 Y99.67 E.0228
G1 X189.922 Y99.784 E.0228
G1 X189.199 Y99.708 E.0228
G1 X188.52 Y99.448 E.0228
G1 X187.931 Y99.021 E.0228
G1 X187.474 Y98.456 E.0228
G1 X187.178 Y97.792 E.0228
G1 X187.064 Y97.074 E.0228
G1 X187.14 Y96.351 E.0228
G1 X187.33 Y95.841 E.01705
G1 X187.474 Y95.544 E.01036
G1 X187.827 Y95.084 E.0182
G1 X188.392 Y94.626 E.0228
G1 X189.056 Y94.33 E.0228
G1 X189.738 Y94.221 E.02164
G1 X190.488 Y94.29 E.02364
G1 X191.176 Y94.552 E.02307
G1 X191.764 Y94.979 E.0228
G1 X192.222 Y95.544 E.0228
G1 X192.521 Y96.226 E.02335
M204 S1000
G1 X192.162 Y96.334 F10800
M204 S800
;TYPE:External perimeter
G1 F1200
G1 X192.26 Y97 E.02112
G1 X192.183 Y97.6 E.01897
G1 X191.948 Y98.184 E.01973
G1 X191.57 Y98.687 E.01973
G1 X191.074 Y99.075 E.01973
G1 X190.496 Y99.322 E.01973
G1 X189.873 Y99.41 E.01973
G1 X189.248 Y99.335 E.01973
G1 X188.664 Y99.1 E.01973
G1 X188.161 Y98.722 E.01973
G1 X187.773 Y98.226 E.01973
G1 X187.526 Y97.648 E.01973
G1 X187.438 Y97.025 E.01973
G1 X187.513 Y96.4 E.01973
G1 X187.748 Y95.816 E.01973
G1 X188.126 Y95.313 E.01973
G1 X188.622 Y94.925 E.01973
G1 X189.2 Y94.678 E.01973
G1 X189.787 Y94.595 E.01857
G1 X190.445 Y94.665 E.02076
G1 X191.032 Y94.9 E.01982
G1 X191.535 Y95.278 E.01973
G1 X191.923 Y95.774 E.01973
G1 X192.138 Y96.278 E.01721
M204 S1000
G1 X192.55 Y96.432 F10800
;WIPE_START
G1 F8640
M73 P1 R141
G1 X192.26 Y97 E-.16897
G1 X192.183 Y97.6 E-.1397
G1 X191.948 Y98.184 E-.14529
G1 X191.57 Y98.687 E-.1453
G1 X191.074 Y99.075 E-.14529
G1 X191.013 Y99.101 E-.01544
;WIPE_END
G1 E-.04 F2100
G1 Z.6 F720
G1 X192.755 Y130.317 F10800
G1 Z.2 F720
G1 E.8 F2100
M204 S800
;TYPE:Perimeter
G1 F1200
G1 X192.674 Y130.561 E.00805
G1 X192.439 Y130.744 E.00933
G1 X192.221 Y130.787 E.00696
G1 X183.779 Y130.787 E.26472
G1 X183.507 Y130.718 E.00878
G1 X183.324 Y130.558 E.00761
M73 Q1 S144
G1 X183.225 Y130.338 E.00757
G1 X183.213 Y129.284 E.03303
G1 X183.213 Y114.779 E.45482
G1 X183.28 Y114.511 E.00866
G1 X183.47 Y114.305 E.00877
G1 X183.715 Y114.217 E.00817
G1 X192.221 Y114.213 E.26672
G1 X192.439 Y114.256 E.00696
G1 X192.674 Y114.439 E.00933
G1 X192.787 Y114.779 E.01122
G1 X192.787 Y130.221 E.4842
G1 X192.774 Y130.26 E.00129
M204 S1000
G1 X192.41 Y130.221 F10800
M204 S800
;TYPE:External perimeter
G1 F1200
G1 X192.372 Y130.335 E.00374
G1 X192.294 Y130.395 E.00311
G1 X192.221 Y130.41 E.00232
G1 X183.779 Y130.41 E.26472
G1 X183.636 Y130.345 E.00492
G1 X183.59 Y130.221 E.00413
G1 X183.59 Y114.779 E.4842
G1 X183.658 Y114.633 E.00504
G1 X183.779 Y114.59 E.004
G1 X192.221 Y114.59 E.26472
G1 X192.372 Y114.665 E.00529
G1 X192.41 Y114.779 E.00374
G1 X192.41 Y130.161 E.48232
M204 S1000
G1 X192.498 Y130.302 F10800
;WIPE_START
M73 P1 R140
G1 F8640
G1 X192.372 Y130.335 E-.04091
G1 X192.294 Y130.395 E-.02291
G1 X192.221 Y130.41 E-.01708
G1 X189.28 Y130.41 E-.6791
;WIPE_END
G1 E-.04 F2100
G1 Z.6 F720
G1 X172.775 Y134.999 F10800
G1 Z.2 F720
G1 E.8 F2100
M204 S800
;TYPE:Perimeter
G1 F1200
G1 X172.708 Y135.649 E.0205
G1 X172.448 Y136.328 E.0228
G1 X172.021 Y136.916 E.0228
G1 X171.456 Y137.374 E.0228
G1 X170.792 Y137.67 E.0228
G1 X170.074 Y137.784 E.0228
G1 X169.351 Y137.708 E.0228
G1 X168.672 Y137.448 E.0228
G1 X168.084 Y137.021 E.0228
G1 X167.626 Y136.456 E.0228
G1 X167.344 Y135.826 E.02164
G1 X167.217 Y135.083 E.02364
G1 X167.292 Y134.351 E.02307
G1 X167.552 Y133.672 E.0228
G1 X167.616 Y133.557 E.00414
G1 X167.979 Y133.084 E.01869
G1 X168.544 Y132.626 E.0228
G1 X169.208 Y132.33 E.0228
G1 X169.89 Y132.221 E.02164
G1 X170.64 Y132.29 E.02364
G1 X171.328 Y132.552 E.02307
G1 X171.916 Y132.979 E.0228
G1 X172.374 Y133.544 E.0228
G1 X172.656 Y134.174 E.02164
G1 X172.781 Y134.939 E.02431
M204 S1000
G1 X172.407 Y134.953 F10800
M204 S800
;TYPE:External perimeter
G1 F1200
G1 X172.335 Y135.6 E.0204
G1 X172.1 Y136.184 E.01973
G1 X171.722 Y136.687 E.01973
G1 X171.226 Y137.075 E.01973
G1 X170.648 Y137.322 E.01973
G1 X170.025 Y137.41 E.01973
G1 X169.4 Y137.335 E.01973
G1 X168.816 Y137.1 E.01973
G1 X168.313 Y136.722 E.01973
G1 X167.925 Y136.226 E.01973
G1 X167.692 Y135.682 E.01857
G1 X167.59 Y135.028 E.02076
G1 X167.665 Y134.4 E.01982
G1 X167.922 Y133.778 E.0211
G1 X168.278 Y133.313 E.01836
G1 X168.774 Y132.925 E.01973
G1 X169.352 Y132.678 E.01973
G1 X169.939 Y132.595 E.01857
G1 X170.597 Y132.665 E.02076
G1 X171.184 Y132.9 E.01982
G1 X171.687 Y133.278 E.01973
G1 X172.075 Y133.774 E.01973
G1 X172.308 Y134.318 E.01857
G1 X172.398 Y134.894 E.01828
M204 S1000
G1 X172.757 Y135.148 F10800
;WIPE_START
G1 F8640
G1 X172.335 Y135.6 E-.16364
G1 X172.1 Y136.184 E-.1453
G1 X171.722 Y136.687 E-.14529
G1 X171.226 Y137.075 E-.1453
G1 X170.648 Y137.322 E-.14529
G1 X170.583 Y137.331 E-.01518
;WIPE_END
G1 E-.04 F2100
G1 Z.6 F720
G1 X158.717 Y74.32 F10800
G1 Z.2 F720
G1 E.8 F2100
M204 S800
;TYPE:Perimeter
G1 F1200
G1 X159.328 Y74.552 E.0205
G1 X159.916 Y74.979 E.0228
G1 X160.374 Y75.544 E.0228
G1 X160.656 Y76.174 E.02164
G1 X160.783 Y76.917 E.02364
G1 X160.708 Y77.649 E.02307
G1 X160.448 Y78.328 E.0228
G1 X160.021 Y78.916 E.0228
G1 X159.456 Y79.374 E.0228
G1 X158.792 Y79.67 E.0228
G1 X158.074 Y79.784 E.0228
G1 X157.351 Y79.708 E.0228
G1 X156.672 Y79.448 E.0228
G1 X156.084 Y79.021 E.0228
G1 X155.626 Y78.456 E.02279
G1 X155.33 Y77.792 E.0228
G1 X155.216 Y77.074 E.0228
G1 X155.292 Y76.351 E.0228
G1 X155.552 Y75.672 E.0228
G1 X155.979 Y75.084 E.0228
G1 X156.544 Y74.626 E.0228
G1 X157.208 Y74.33 E.0228
G1 X157.89 Y74.221 E.02164
G1 X158.661 Y74.298 E.02431
M204 S1000
G1 X158.577 Y74.663 F10800
M204 S800
;TYPE:External perimeter
G1 F1200
G1 X159.184 Y74.9 E.02043
G1 X159.687 Y75.278 E.01973
G1 X160.075 Y75.774 E.01973
G1 X160.308 Y76.318 E.01857
G1 X160.41 Y76.972 E.02076
G1 X160.335 Y77.6 E.01982
G1 X160.1 Y78.184 E.01973
G1 X159.722 Y78.687 E.01973
G1 X159.226 Y79.075 E.01973
G1 X158.648 Y79.322 E.01973
G1 X158.015 Y79.411 E.02004
G1 X157.4 Y79.335 E.01943
G1 X156.816 Y79.1 E.01973
G1 X156.313 Y78.722 E.01973
G1 X155.925 Y78.227 E.01973
G1 X155.678 Y77.648 E.01973
G1 X155.59 Y77.025 E.01973
G1 X155.665 Y76.4 E.01973
G1 X155.9 Y75.816 E.01973
G1 X156.278 Y75.313 E.01973
G1 X156.774 Y74.925 E.01973
G1 X157.352 Y74.678 E.01973
G1 X157.939 Y74.595 E.01857
G1 X158.517 Y74.657 E.01825
M204 S1000
G1 X158.855 Y74.375 F10800
;WIPE_START
G1 F8640
G1 X159.184 Y74.9 E-.16384
G1 X159.687 Y75.278 E-.14529
G1 X160.075 Y75.774 E-.1453
G1 X160.308 Y76.318 E-.13677
G1 X160.41 Y76.972 E-.15285
G1 X160.402 Y77.041 E-.01595
;WIPE_END
G1 E-.04 F2100
G1 Z.6 F720
G1 X89.385 Y79.406 F10800
G1 Z.2 F720
G1 E.8 F2100
M204 S800
;TYPE:Perimeter
G1 F1200
G1 X88.792 Y79.67 E.02034
G1 X88.074 Y79.784 E.0228
G1 X87.351 Y79.708 E.0228
G1 X86.672 Y79.448 E.0228
G1 X86.084 Y79.021 E.0228
G1 X85.626 Y78.456 E.0228
G1 X85.333 Y77.796 E.02264
G1 X85.217 Y77.083 E.02267
G1 X85.292 Y76.351 E.02307
G1 X85.552 Y75.672 E.0228
G1 X85.979 Y75.084 E.0228
G1 X86.544 Y74.626 E.0228
G1 X87.208 Y74.33 E.0228
G1 X87.89 Y74.221 E.02164
G1 X88.64 Y74.29 E.02364
G1 X89.328 Y74.552 E.02307
G1 X89.916 Y74.979 E.0228
G1 X90.374 Y75.544 E.0228
G1 X90.67 Y76.208 E.0228
G1 X90.784 Y76.926 E.0228
G1 X90.708 Y77.649 E.0228
G1 X90.448 Y78.328 E.0228
G1 X90.021 Y78.916 E.02279
G1 X89.439 Y79.382 E.02335
M204 S1000
G1 X89.243 Y79.062 F10800
M204 S800
;TYPE:External perimeter
G1 F1200
G1 X88.648 Y79.322 E.02035
G1 X88.025 Y79.41 E.01973
G1 X87.4 Y79.335 E.01973
G1 X86.816 Y79.1 E.01973
G1 X86.313 Y78.722 E.01973
G1 X85.925 Y78.226 E.01973
G1 X85.689 Y77.672 E.0189
G1 X85.59 Y77.028 E.02043
G1 X85.665 Y76.4 E.01982
G1 X85.9 Y75.816 E.01973
G1 X86.278 Y75.313 E.01973
G1 X86.774 Y74.925 E.01973
G1 X87.352 Y74.678 E.01973
G1 X87.939 Y74.595 E.01857
G1 X88.597 Y74.665 E.02076
G1 X89.184 Y74.9 E.01982
G1 X89.687 Y75.278 E.01973
G1 X90.075 Y75.774 E.01973
G1 X90.322 Y76.352 E.01973
G1 X90.41 Y76.975 E.01973
G1 X90.335 Y77.6 E.01973
G1 X90.1 Y78.184 E.01973
G1 X89.722 Y78.687 E.01973
G1 X89.29 Y79.025 E.01721
M204 S1000
G1 X89.249 Y79.462 F10800
;WIPE_START
G1 F8640
G1 X88.648 Y79.322 E-.1633
G1 X88.025 Y79.41 E-.1453
G1 X87.4 Y79.335 E-.1453
G1 X86.816 Y79.1 E-.14529
G1 X86.313 Y78.722 E-.14529
G1 X86.272 Y78.669 E-.01552
;WIPE_END
G1 E-.04 F2100
G1 Z.6 F720
G1 X58.609 Y87.402 F10800
G1 Z.2 F720
G1 E.8 F2100
M204 S800
;TYPE:Perimeter
G1 F1200
G1 X58.084 Y87.021 E.02034
G1 X57.626 Y86.456 E.0228
G1 X57.344 Y85.826 E.02164
G1 X57.217 Y85.083 E.02364
G1 X57.292 Y84.351 E.02307
G1 X57.552 Y83.672 E.0228
G1 X57.979 Y83.084 E.0228
G1 X58.544 Y82.626 E.0228
G1 X59.208 Y82.33 E.0228
G1 X59.89 Y82.221 E.02164
G1 X60.64 Y82.29 E.02364
G1 X61.328 Y82.552 E.02307
G1 X61.946 Y83.004 E.024
G1 X62.374 Y83.544 E.02161
G1 X62.67 Y84.208 E.0228
G1 X62.784 Y84.926 E.0228
G1 X62.708 Y85.649 E.0228
G1 X62.448 Y86.328 E.0228
G1 X62.021 Y86.916 E.0228
G1 X61.456 Y87.374 E.0228
G1 X60.792 Y87.67 E.0228
G1 X60.074 Y87.784 E.0228
G1 X59.516 Y87.73 E.01758
G1 X59.208 Y87.67 E.00983
G1 X58.657 Y87.437 E.01875
M204 S1000
G1 X58.835 Y87.107 F10800
M204 S800
;TYPE:External perimeter
G1 F1200
G1 X58.313 Y86.722 E.02035
G1 X57.925 Y86.226 E.01973
G1 X57.692 Y85.682 E.01857
G1 X57.59 Y85.028 E.02076
G1 X57.665 Y84.4 E.01982
G1 X57.9 Y83.816 E.01973
G1 X58.278 Y83.313 E.01973
G1 X58.774 Y82.925 E.01973
G1 X59.352 Y82.678 E.01973
G1 X59.939 Y82.595 E.01857
G1 X60.597 Y82.665 E.02076
G1 X61.184 Y82.9 E.01982
G1 X61.697 Y83.286 E.02013
G1 X62.075 Y83.774 E.01934
G1 X62.322 Y84.352 E.01973
G1 X62.41 Y84.975 E.01973
G1 X62.335 Y85.6 E.01973
G1 X62.1 Y86.184 E.01973
G1 X61.722 Y86.687 E.01973
G1 X61.226 Y87.075 E.01973
G1 X60.648 Y87.322 E.01973
G1 X60.025 Y87.41 E.01973
G1 X59.4 Y87.335 E.01973
G1 X58.891 Y87.13 E.01721
M204 S1000
G1 X58.492 Y87.313 F10800
;WIPE_START
G1 F8640
G1 X58.313 Y86.722 E-.16331
G1 X57.925 Y86.226 E-.14529
G1 X57.692 Y85.682 E-.13677
G1 X57.59 Y85.028 E-.15285
G1 X57.665 Y84.4 E-.14599
G1 X57.691 Y84.337 E-.01578
;WIPE_END
G1 E-.04 F2100
G1 Z.6 F720
G1 X60.717 Y94.32 F10800
G1 Z.2 F720
G1 E.8 F2100
M204 S800
;TYPE:Perimeter
G1 F1200
G1 X61.328 Y94.552 E.0205
G1 X61.916 Y94.979 E.0228
G1 X61.979 Y95.035 E.00263
G1 X62.374 Y95.544 E.02021
G1 X62.67 Y96.208 E.0228
G1 X62.784 Y96.926 E.0228
G1 X62.708 Y97.649 E.0228
G1 X62.448 Y98.328 E.0228
G1 X62.021 Y98.916 E.0228
G1 X61.456 Y99.374 E.0228
G1 X60.792 Y99.67 E.0228
G1 X60.074 Y99.784 E.0228
G1 X59.351 Y99.708 E.0228
G1 X58.672 Y99.448 E.0228
G1 X58.084 Y99.021 E.0228
G1 X57.626 Y98.456 E.0228
G1 X57.344 Y97.826 E.02164
G1 X57.217 Y97.083 E.02364
G1 X57.292 Y96.351 E.02307
G1 X57.552 Y95.672 E.0228
G1 X57.979 Y95.084 E.0228
G1 X58.544 Y94.626 E.0228
G1 X59.208 Y94.33 E.0228
G1 X59.89 Y94.221 E.02164
G1 X60.661 Y94.298 E.02431
M204 S1000
G1 X60.575 Y94.663 F10800
M204 S800
;TYPE:External perimeter
G1 F1200
G1 X61.184 Y94.9 E.0205
G1 X61.708 Y95.297 E.0206
G1 X62.075 Y95.774 E.01887
G1 X62.322 Y96.352 E.01973
G1 X62.41 Y96.975 E.01973
G1 X62.335 Y97.6 E.01973
G1 X62.1 Y98.184 E.01973
G1 X61.722 Y98.687 E.01973
G1 X61.226 Y99.075 E.01973
G1 X60.648 Y99.322 E.01973
G1 X60.025 Y99.41 E.01973
G1 X59.4 Y99.335 E.01973
G1 X58.816 Y99.1 E.01973
G1 X58.313 Y98.722 E.01973
G1 X57.925 Y98.226 E.01973
G1 X57.692 Y97.682 E.01857
G1 X57.59 Y97.028 E.02076
G1 X57.665 Y96.4 E.01982
G1 X57.9 Y95.816 E.01973
