; generated by PrusaSlicer 2.5.2+win64 on 2023-06-08 at 15:23:10 UTC


;
;
; 

; external perimeters extrusion width = 0.60mm
; perimeters extrusion width = 0.50mm
; infill extrusion width = 0.50mm
; solid infill extrusion width = 0.50mm
; top infill extrusion width = 0.45mm
; first layer extrusion width = 0.42mm

; external perimeters extrusion width = 0.60mm
; perimeters extrusion width = 0.50mm
; infill extrusion width = 0.50mm
; solid infill extrusion width = 0.50mm
; top infill extrusion width = 0.45mm
; first layer extrusion width = 0.42mm

M73 P0 R231
M73 Q0 S234
M201 X1000 Y1000 Z200 E5000 ; sets maximum accelerations, mm/sec^2
M203 X200 Y200 Z12 E120 ; sets maximum feedrates, mm / sec
M204 P1250 R1250 T1250 ; sets acceleration (P, T) and retract acceleration (R), mm/sec^2
M205 X8.00 Y8.00 Z0.40 E4.50 ; sets the jerk limits, mm/sec
M205 S0 T0 ; sets the minimum extruding and travel feed rate, mm/sec
M107
;TYPE:Custom
M862.3 P "MK3S" ; printer model check
M862.1 P0.4 ; nozzle diameter check
M115 U3.12.2 ; tell printer latest fw version
G90 ; use absolute coordinates
M83 ; extruder relative mode
M104 S215 ; set extruder temp
M140 S60 ; set bed temp
M190 S60 ; wait for bed temp
M109 S215 ; wait for extruder temp
G28 W ; home all without mesh bed level
G80 ; mesh bed leveling

G1 Z0.2 F720
G1 Y-3 F1000 ; go outside print area
G92 E0
G1 X60 E9 F1000 ; intro line
G1 X100 E12.5 F1000 ; intro line

G92 E0
M221 S95

; Don't change E values below. Excessive value can damage the printer.

M907 E538 ; set extruder motor current
G21 ; set units to millimeters
G90 ; use absolute coordinates
M83 ; use relative distances for extrusion
M900 K0.05 ; Filament gcode LA 1.5
M900 K30 ; Filament gcode LA 1.0
M107
;LAYER_CHANGE
;Z:0.2
;HEIGHT:0.2
;BEFORE_LAYER_CHANGE
G92 E0.0
;0.2


G1 E-.8 F2100
G1 Z.4 F720
;AFTER_LAYER_CHANGE
;0.2
G1 X10.956 Y33.888 F10800
G1 Z.2 F720
G1 E.8 F2100
M204 S800
;TYPE:Skirt/Brim
;WIDTH:0.42
G1 F1200
G1 X11.895 Y33.694 E.03008
G1 X111.895 Y33.694 E3.13543
G1 X112.429 Y33.755 E.01684
M73 P0 R230
G1 X194.861 Y52.74 E2.65225
G1 X198.536 Y53.699 E.1191
G1 X202.084 Y54.856 E.11701
G1 X205.556 Y56.224 E.11701
G1 X208.941 Y57.796 E.11702
G1 X212.225 Y59.569 E.11701
G1 X215.398 Y61.534 E.11701
G1 X218.447 Y63.686 E.11701
G1 X221.362 Y66.016 E.11702
G1 X224.133 Y68.516 E.11701
G1 X226.749 Y71.178 E.11701
G1 X229.111 Y73.881 E.11256
G1 X231.397 Y76.831 E.11701
G1 X233.58 Y80.032 E.12147
G1 X235.49 Y83.238 E.11701
G1 X237.144 Y86.424 E.11256
G1 X238.72 Y89.964 E.12147
G1 X239.981 Y93.324 E.11256
G1 X241.085 Y96.889 E.11701
G1 X242.003 Y100.653 E.12147
G1 X242.666 Y104.326 E.11701
G1 X243.094 Y107.89 E.11256
G1 X243.326 Y111.757 E.12147
G1 X243.326 Y115.347 E.11256
G1 X243.107 Y119.073 E.11701
G1 X242.644 Y122.919 E.12147
G1 X241.974 Y126.591 E.11702
G1 X241.123 Y130.078 E.11256
G1 X239.981 Y133.78 E.12147
G1 X238.72 Y137.141 E.11256
G1 X237.205 Y140.552 E.11701
G1 X235.421 Y143.991 E.12147
G1 X233.58 Y147.073 E.11256
G1 X231.481 Y150.158 E.11702
G1 X229.111 Y153.223 E.12147
G1 X226.652 Y156.031 E.11701
G1 X224.03 Y158.687 E.11701
G1 X221.254 Y161.181 E.11701
G1 X218.333 Y163.504 E.11702
G1 X215.398 Y165.57 E.11256
G1 X212.225 Y167.536 E.11701
G1 X208.705 Y169.422 E.12522
G1 X205.426 Y170.937 E.11326
G1 X201.95 Y172.296 E.11701
G1 X198.399 Y173.445 E.11702
G1 X194.786 Y174.38 E.11702
G1 X191.264 Y175.074 E.11256
G1 X187.567 Y175.579 E.11702
G1 X183.753 Y175.867 E.11991
G1 X111.895 Y178.448 E2.2545
G1 X11.895 Y178.448 E3.13543
G1 X10.588 Y178.057 E.04278
M73 Q0 S233
G1 X9.712 Y177.011 E.04278
G1 X9.518 Y176.071 E.03008
G1 X9.518 Y36.071 E4.3896
G1 X9.91 Y34.764 E.04278
G1 X10.91 Y33.926 E.0409
M204 S1000
; printing object BalanceBugLEVEL2 v1 id:0 copy 0
;WIPE_START
G1 F8640
G1 X11.895 Y33.694 E-.23384
G1 X14.174 Y33.694 E-.52616
;WIPE_END
G1 E-.04 F2100
G1 Z.6 F720
G1 X111.108 Y175.284 F10800
G1 Z.2 F720
G1 E.8 F2100
M204 S800
;TYPE:Perimeter
;WIDTH:0.419999
G1 F1200
G1 X12.682 Y175.284 E3.08607
G1 X12.682 Y36.858 E4.34024
G1 X111.108 Y36.858 E3.08607
G1 X111.108 Y175.224 E4.33836
M204 S1000
G1 X111.485 Y175.661 F10800
M204 S800
;TYPE:External perimeter
G1 F1200
G1 X12.305 Y175.661 E3.10971
G1 X12.305 Y36.481 E4.36388
G1 X111.485 Y36.481 E3.10971
M73 P0 R229
G1 X111.485 Y175.601 E4.362
M204 S1000
G1 X111.105 Y175.536 F10800
;WIPE_START
G1 F8640
G1 X108.194 Y175.603 E-.76
;WIPE_END
G1 E-.04 F2100
G1 Z.6 F720
G1 X63.424 Y90.879 F10800
G1 Z.2 F720
G1 E.8 F2100
M204 S800
;TYPE:Perimeter
G1 F1200
G1 X65.044 Y91.113 E.05133
G1 X66.869 Y91.616 E.05935
G1 X68.614 Y92.341 E.05926
G1 X70.257 Y93.275 E.05926
G1 X71.773 Y94.404 E.05926
G1 X73.184 Y95.764 E.06145
G1 X74.329 Y97.179 E.05707
M73 Q0 S232
G1 X75.331 Y98.781 E.05926
G1 X76.154 Y100.56 E.06145
G1 X76.708 Y102.294 E.05707
G1 X77.061 Y104.15 E.05926
G1 X77.182 Y106.106 E.06145
G1 X77.061 Y107.992 E.05926
G1 X76.725 Y109.781 E.05707
G1 X76.154 Y111.583 E.05926
G1 X75.365 Y113.3 E.05926
G1 X74.329 Y114.964 E.06145
G1 X73.184 Y116.379 E.05707
G1 X71.826 Y117.693 E.05926
G1 X70.316 Y118.829 E.05926
G1 X69.652 Y119.214 E.02405
G1 X68.614 Y119.802 E.0374
G1 X66.935 Y120.503 E.05707
G1 X65.115 Y121.015 E.05926
G1 X63.424 Y121.263 E.0536
G1 X63.915 Y121.655 E.01969
G1 X64.269 Y122.115 E.0182
G1 X64.565 Y122.779 E.02282
G1 X64.679 Y123.497 E.0228
G1 X64.604 Y124.221 E.0228
G1 X64.343 Y124.899 E.0228
G1 X63.916 Y125.488 E.0228
G1 X63.351 Y125.945 E.0228
G1 X62.687 Y126.241 E.0228
G1 X61.969 Y126.355 E.0228
G1 X61.246 Y126.28 E.0228
G1 X60.567 Y126.019 E.0228
G1 X59.979 Y125.592 E.0228
G1 X59.521 Y125.027 E.0228
G1 X59.225 Y124.363 E.0228
G1 X59.111 Y123.645 E.0228
G1 X59.18 Y122.973 E.02118
G1 X59.225 Y122.779 E.00624
G1 X59.447 Y122.243 E.0182
G1 X59.764 Y121.799 E.0171
G1 X59.989 Y121.544 E.01065
G1 X60.398 Y121.243 E.01593
G1 X59.485 Y121.166 E.02871
G1 X57.632 Y120.751 E.05953
G1 X55.854 Y120.113 E.05926
G1 X54.167 Y119.26 E.05926
G1 X52.599 Y118.206 E.05926
G1 X51.172 Y116.966 E.05926
G1 X49.91 Y115.559 E.05926
G1 X49.073 Y114.358 E.0459
G1 X38.672 Y114.358 E.32613
G1 X38.41 Y114.293 E.00844
G1 X38.203 Y114.106 E.00878
G1 X38.112 Y113.861 E.00819
G1 X38.108 Y113.793 E.00214
G1 X38.108 Y98.35 E.4842
G1 X38.171 Y98.092 E.00833
G1 X38.344 Y97.89 E.00833
G1 X38.599 Y97.789 E.0086
G1 X49.073 Y97.784 E.32841
G1 X49.91 Y96.583 E.0459
G1 X51.172 Y95.177 E.05926
G1 X52.543 Y93.979 E.05707
G1 X54.112 Y92.914 E.05944
G1 X55.789 Y92.057 E.05907
G1 X57.565 Y91.411 E.05926
G1 X59.408 Y90.989 E.05926
G1 X60.397 Y90.899 E.03115
G1 X59.989 Y90.598 E.0159
G1 X59.522 Y90.028 E.02311
G1 X59.225 Y89.363 E.02283
G1 X59.135 Y88.83 E.01695
G1 X59.111 Y88.497 E.01046
G1 X59.187 Y87.918 E.01833
G1 X59.447 Y87.243 E.02266
G1 X59.874 Y86.655 E.0228
G1 X59.979 Y86.55 E.00463
G1 X60.439 Y86.197 E.0182
G1 X61.103 Y85.901 E.0228
G1 X61.785 Y85.792 E.02164
G1 X62.536 Y85.862 E.02364
G1 X63.223 Y86.123 E.02307
G1 X63.812 Y86.55 E.0228
G1 X64.27 Y87.115 E.0228
G1 X64.506 Y87.636 E.01795
G1 X64.604 Y87.922 E.00946
G1 X64.679 Y88.497 E.0182
G1 X64.604 Y89.221 E.0228
G1 X64.423 Y89.706 E.01625
G1 X64.269 Y90.028 E.01118
G1 X63.915 Y90.488 E.0182
G1 X63.471 Y90.842 E.01781
M204 S1000
G1 X63.13 Y90.628 F10800
M204 S800
;TYPE:External perimeter
G1 F1200
G1 X63.114 Y90.64 E.00065
;WIDTH:0.425797
G1 X62.519 Y90.855 E.02014
G1 X61.906 Y90.893 E.01955
;WIDTH:0.433307
G1 X61.321 Y90.856 E.01901
G1 X60.733 Y90.666 E.02008
;WIDTH:0.419999
G1 X60.212 Y90.295 E.02005
G1 X59.82 Y89.798 E.01983
G1 X59.573 Y89.219 E.01974
G1 X59.485 Y88.596 E.01973
G1 X59.561 Y87.971 E.01973
G1 X59.796 Y87.387 E.01973
G1 X60.208 Y86.849 E.02126
G1 X60.669 Y86.496 E.0182
G1 X61.248 Y86.249 E.01973
G1 X61.834 Y86.166 E.01857
G1 X62.492 Y86.236 E.02076
G1 X63.079 Y86.472 E.01982
G1 X63.582 Y86.849 E.01973
G1 X63.97 Y87.345 E.01973
G1 X64.217 Y87.924 E.01973
G1 X64.306 Y88.547 E.01973
G1 X64.23 Y89.171 E.01973
G1 X63.999 Y89.745 E.01938
G1 X63.616 Y90.258 E.02008
G1 X63.178 Y90.591 E.01726
M204 S1000
G1 X63.134 Y90.648 F10800
;WIPE_START
G1 F8640
G1 X63.114 Y90.64 E-.01864
G1 X62.519 Y90.855 E-.14609
G1 X61.906 Y90.893 E-.14177
G1 X61.321 Y90.856 E-.13525
G1 X60.733 Y90.666 E-.14282
G1 X60.212 Y90.295 E-.14763
G1 X60.138 Y90.2 E-.0278
;WIPE_END
G1 E-.04 F2100
G1 Z.6 F720
G1 X38.485 Y113.793 F10800
G1 Z.2 F720
G1 E.8 F2100
M204 S800
G1 F1200
G1 X38.485 Y98.35 E.4842
G1 X38.549 Y98.208 E.00488
G1 X38.674 Y98.161 E.00417
G1 X49.271 Y98.161 E.33226
G1 X50.191 Y96.834 E.05063
G1 X51.42 Y95.461 E.0578
G1 X52.791 Y94.263 E.05707
G1 X54.32 Y93.229 E.05786
G1 X55.96 Y92.393 E.05774
G1 X57.694 Y91.765 E.0578
G1 X59.491 Y91.356 E.0578
G1 X60.501 Y91.269 E.03177
;WIDTH:0.440754
G1 X61.21 Y91.239 E.02347
G1 X61.797 Y91.267 E.01946
;WIDTH:0.423759
G1 X63.156 Y91.225 E.04305
;WIDTH:0.419999
G1 X64.99 Y91.486 E.0581
G1 X66.767 Y91.98 E.05783
G1 X68.469 Y92.689 E.0578
G1 X70.09 Y93.615 E.05853
G1 X71.546 Y94.706 E.05707
G1 X72.875 Y95.984 E.0578
G1 X74.049 Y97.435 E.05853
G1 X75.011 Y98.98 E.05707
G1 X75.786 Y100.653 E.0578
G1 X76.354 Y102.431 E.05853
G1 X76.69 Y104.222 E.05714
G1 X76.805 Y106.06 E.05773
G1 X76.69 Y107.923 E.05853
G1 X76.354 Y109.712 E.05707
G1 X75.794 Y111.468 E.0578
G1 X75.011 Y113.162 E.05853
G1 X74.049 Y114.708 E.05707
G1 X72.891 Y116.141 E.0578
G1 X71.546 Y117.436 E.05853
G1 X70.088 Y118.529 E.05715
G1 X68.488 Y119.445 E.05781
G1 X66.79 Y120.155 E.05771
G1 X65.014 Y120.651 E.0578
G1 X63.189 Y120.916 E.05783
;WIDTH:0.432124
G1 X61.895 Y120.876 E.04189
;WIDTH:0.432693
G1 X61.3 Y120.898 E.01931
G1 X60.666 Y120.887 E.02054
;WIDTH:0.419999
G1 X59.517 Y120.79 E.03615
G1 X57.716 Y120.384 E.05789
G1 X55.982 Y119.758 E.0578
G1 X54.338 Y118.924 E.0578
G1 X52.81 Y117.893 E.0578
G1 X51.42 Y116.682 E.0578
G1 X50.191 Y115.308 E.0578
G1 X49.271 Y113.981 E.05063
G1 X38.642 Y113.979 E.33324
G1 X38.511 Y113.888 E.005
G1 X38.501 Y113.851 E.00122
M204 S1000
G1 X38.102 Y113.678 F10800
;WIPE_START
G1 F8640
G1 X38.498 Y110.559 E-.76
;WIPE_END
G1 E-.04 F2100
G1 Z.6 F720
G1 X63.067 Y121.482 F10800
G1 Z.2 F720
G1 E.8 F2100
M204 S800
G1 F1200
G1 X63.579 Y121.848 E.01974
G1 X63.97 Y122.345 E.01981
G1 X64.217 Y122.924 E.01974
G1 X64.306 Y123.547 E.01973
G1 X64.23 Y124.171 E.01973
G1 X63.995 Y124.755 E.01973
G1 X63.617 Y125.258 E.01973
G1 X63.109 Y125.656 E.02023
G1 X62.543 Y125.893 E.01924
G1 X61.92 Y125.982 E.01973
G1 X61.295 Y125.906 E.01973
G1 X60.711 Y125.671 E.01973
G1 X60.208 Y125.293 E.01973
G1 X59.82 Y124.798 E.01973
G1 X59.573 Y124.219 E.01973
G1 X59.485 Y123.596 E.01973
G1 X59.554 Y123.022 E.01811
G1 X59.796 Y122.387 E.0213
G1 X60.175 Y121.885 E.01974
G1 X60.679 Y121.504 E.01979
;WIDTH:0.433862
G1 X61.278 Y121.295 E.02063
G1 X61.819 Y121.253 E.01764
;WIDTH:0.423712
G1 X62.466 Y121.279 E.02053
G1 X63.012 Y121.459 E.0182
M204 S1000
G1 X63.403 Y121.265 F10800
;WIPE_START
G1 F8640
G1 X63.579 Y121.848 E-.15882
G1 X63.97 Y122.345 E-.1459
G1 X64.217 Y122.924 E-.14535
G1 X64.306 Y123.547 E-.1453
G1 X64.23 Y124.171 E-.1453
G1 X64.199 Y124.249 E-.01934
;WIPE_END
G1 E-.04 F2100
G1 Z.6 F720
G1 X110.939 Y37.79 F10800
G1 Z.2 F720
G1 E.8 F2100
M204 S800
;TYPE:Solid infill
;WIDTH:0.420014
G1 F1200
G1 X110.346 Y37.198 E.02628
G1 X109.813 Y37.198 E.01672
G1 X110.769 Y38.154 E.0424
G1 X110.769 Y38.687 E.01672
G1 X109.279 Y37.198 E.06605
G1 X108.746 Y37.198 E.01672
G1 X110.769 Y39.22 E.0897
G1 X110.769 Y39.754 E.01672
G1 X108.213 Y37.198 E.11335
G1 X107.679 Y37.198 E.01672
G1 X110.769 Y40.287 E.13699
G1 X110.769 Y40.82 E.01672
G1 X107.146 Y37.198 E.16064
G1 X106.613 Y37.198 E.01672
G1 X110.769 Y41.354 E.18429
G1 X110.769 Y41.887 E.01672
G1 X106.08 Y37.198 E.20794
G1 X105.546 Y37.198 E.01672
G1 X110.769 Y42.42 E.23159
G1 X110.769 Y42.954 E.01672
G1 X105.013 Y37.198 E.25523
G1 X104.48 Y37.198 E.01672
G1 X110.769 Y43.487 E.27888
G1 X110.769 Y44.02 E.01672
G1 X103.946 Y37.198 E.30253
G1 X103.413 Y37.198 E.01672
G1 X110.769 Y44.553 E.32618
G1 X110.769 Y45.087 E.01672
G1 X102.88 Y37.198 E.34983
G1 X102.347 Y37.198 E.01672
G1 X110.769 Y45.62 E.37347
G1 X110.769 Y46.153 E.01672
G1 X101.813 Y37.198 E.39712
G1 X101.28 Y37.198 E.01672
G1 X110.769 Y46.687 E.42077
G1 X110.769 Y47.22 E.01672
G1 X100.747 Y37.198 E.44442
G1 X100.213 Y37.198 E.01672
G1 X110.769 Y47.753 E.46806
G1 X110.769 Y48.286 E.01672
G1 X99.68 Y37.198 E.49171
G1 X99.147 Y37.198 E.01672
G1 X110.769 Y48.82 E.51536
G1 X110.769 Y49.353 E.01672
G1 X98.614 Y37.198 E.53901
G1 X98.08 Y37.198 E.01672
G1 X110.769 Y49.886 E.56266
G1 X110.769 Y50.42 E.01672
G1 X97.547 Y37.198 E.5863
G1 X97.014 Y37.198 E.01672
G1 X110.769 Y50.953 E.60995
G1 X110.769 Y51.486 E.01672
G1 X96.48 Y37.198 E.6336
G1 X95.947 Y37.198 E.01672
G1 X110.769 Y52.019 E.65725
G1 X110.769 Y52.553 E.01672
G1 X95.414 Y37.198 E.6809
G1 X94.88 Y37.198 E.01672
G1 X110.769 Y53.086 E.70454
G1 X110.769 Y53.619 E.01672
G1 X94.347 Y37.198 E.72819
G1 X93.814 Y37.198 E.01672
G1 X110.769 Y54.153 E.75184
G1 X110.769 Y54.686 E.01672
G1 X93.281 Y37.198 E.77549
G1 X92.747 Y37.198 E.01672
G1 X110.769 Y55.219 E.79914
G1 X110.769 Y55.753 E.01672
G1 X92.214 Y37.198 E.82278
G1 X91.681 Y37.198 E.01672
M73 P0 R228
G1 X110.769 Y56.286 E.84643
G1 X110.769 Y56.819 E.01672
G1 X91.147 Y37.198 E.87008
G1 X90.614 Y37.198 E.01672
G1 X110.769 Y57.352 E.89373
G1 X110.769 Y57.886 E.01672
G1 X90.081 Y37.198 E.91738
G1 X89.548 Y37.198 E.01672
G1 X110.769 Y58.419 E.94102
G1 X110.769 Y58.952 E.01672
M73 P1 R228
M73 Q1 S232
G1 X89.014 Y37.198 E.96467
G1 X88.481 Y37.198 E.01672
G1 X110.769 Y59.486 E.98832
G1 X110.769 Y60.019 E.01672
G1 X87.948 Y37.198 E1.01197
G1 X87.414 Y37.198 E.01672
G1 X110.769 Y60.552 E1.03562
G1 X110.769 Y61.085 E.01672
G1 X86.881 Y37.198 E1.05926
G1 X86.348 Y37.198 E.01672
G1 X110.769 Y61.619 E1.08291
G1 X110.769 Y62.152 E.01672
G1 X85.815 Y37.198 E1.10656
G1 X85.281 Y37.198 E.01672
M73 Q1 S231
G1 X110.769 Y62.685 E1.13021
G1 X110.769 Y63.219 E.01672
G1 X84.748 Y37.198 E1.15386
G1 X84.215 Y37.198 E.01672
G1 X110.769 Y63.752 E1.1775
G1 X110.769 Y64.285 E.01672
G1 X83.681 Y37.198 E1.20115
G1 X83.148 Y37.198 E.01672
G1 X110.769 Y64.818 E1.2248
G1 X110.769 Y65.352 E.01672
G1 X82.615 Y37.198 E1.24845
G1 X82.081 Y37.198 E.01672
G1 X110.769 Y65.885 E1.27209
G1 X110.769 Y66.418 E.01672
G1 X81.548 Y37.198 E1.29574
G1 X81.015 Y37.198 E.01672
G1 X110.769 Y66.952 E1.31939
G1 X110.769 Y67.485 E.01672
G1 X80.482 Y37.198 E1.34304
G1 X79.948 Y37.198 E.01672
G1 X110.769 Y68.018 E1.36669
G1 X110.769 Y68.552 E.01672
G1 X79.415 Y37.198 E1.39033
G1 X78.882 Y37.198 E.01672
G1 X110.769 Y69.085 E1.41398
G1 X110.769 Y69.618 E.01672
G1 X78.348 Y37.198 E1.43763
G1 X77.815 Y37.198 E.01672
G1 X110.769 Y70.151 E1.46128
G1 X110.769 Y70.685 E.01672
G1 X77.282 Y37.198 E1.48493
G1 X76.749 Y37.198 E.01672
G1 X110.769 Y71.218 E1.50857
G1 X110.769 Y71.751 E.01672
G1 X76.215 Y37.198 E1.53222
G1 X75.682 Y37.198 E.01672
G1 X110.769 Y72.285 E1.55587
G1 X110.769 Y72.818 E.01672
M73 P1 R227
G1 X75.149 Y37.198 E1.57952
G1 X74.615 Y37.198 E.01672
G1 X110.769 Y73.351 E1.60317
G1 X110.769 Y73.884 E.01672
G1 X74.082 Y37.198 E1.62681
G1 X73.549 Y37.198 E.01672
G1 X110.769 Y74.418 E1.65046
G1 X110.769 Y74.951 E.01672
G1 X73.016 Y37.198 E1.67411
G1 X72.482 Y37.198 E.01672
G1 X110.769 Y75.484 E1.69776
G1 X110.769 Y76.018 E.01672
G1 X71.949 Y37.198 E1.72141
G1 X71.416 Y37.198 E.01672
M73 Q1 S230
G1 X110.769 Y76.551 E1.74505
G1 X110.769 Y77.084 E.01672
G1 X70.882 Y37.198 E1.7687
G1 X70.349 Y37.198 E.01672
G1 X110.769 Y77.617 E1.79235
G1 X110.769 Y78.151 E.01672
G1 X69.816 Y37.198 E1.816
G1 X69.282 Y37.198 E.01672
G1 X110.769 Y78.684 E1.83965
G1 X110.769 Y79.217 E.01672
G1 X68.749 Y37.198 E1.86329
G1 X68.216 Y37.198 E.01672
G1 X110.769 Y79.751 E1.88694
G1 X110.769 Y80.284 E.01672
G1 X67.683 Y37.198 E1.91059
G1 X67.149 Y37.198 E.01672
G1 X110.769 Y80.817 E1.93424
G1 X110.769 Y81.351 E.01672
G1 X66.616 Y37.198 E1.95788
G1 X66.083 Y37.198 E.01672
G1 X110.769 Y81.884 E1.98153
G1 X110.769 Y82.417 E.01672
G1 X65.549 Y37.198 E2.00518
G1 X65.016 Y37.198 E.01672
G1 X110.769 Y82.95 E2.02883
G1 X110.769 Y83.484 E.01672
G1 X64.483 Y37.198 E2.05248
G1 X63.95 Y37.198 E.01672
M73 P1 R226
G1 X110.769 Y84.017 E2.07612
